documentation/public/assets/images/03-tabs-do.svg

<svg width="252" height="128" viewBox="0 0 252 128" fill="none" xmlns="http://www.w3.org/2000/svg">
<rect width="252" height="44" fill="white"/>
<line y1="43.5" x2="252" y2="43.5" stroke="#EBEBEB"/>
<path d="M17.1477 28V16.3636H24.7159V18.1307H19.2557V21.2898H24.3239V23.0568H19.2557V26.233H24.7614V28H17.1477ZM28.8324 22.8864V28H26.7756V19.2727H28.7415V20.7557H28.8438C29.0445 20.267 29.3646 19.8788 29.804 19.5909C30.2472 19.303 30.7945 19.1591 31.446 19.1591C32.0483 19.1591 32.5729 19.2879 33.0199 19.5455C33.4706 19.803 33.8191 20.1761 34.0653 20.6648C34.3153 21.1534 34.4384 21.7462 34.4347 22.4432V28H32.3778V22.7614C32.3778 22.178 32.2263 21.7216 31.9233 21.392C31.6241 21.0625 31.2093 20.8977 30.679 20.8977C30.3191 20.8977 29.9991 20.9773 29.7188 21.1364C29.4422 21.2917 29.2244 21.517 29.0653 21.8125C28.91 22.108 28.8324 22.4659 28.8324 22.8864ZM40.321 31.4545C39.5824 31.4545 38.9479 31.3542 38.4176 31.1534C37.8873 30.9564 37.4612 30.6913 37.1392 30.358C36.8172 30.0246 36.5938 29.6553 36.4688 29.25L38.321 28.8011C38.4044 28.9716 38.5256 29.1402 38.6847 29.3068C38.8438 29.4773 39.0578 29.6174 39.3267 29.7273C39.5994 29.8409 39.9422 29.8977 40.3551 29.8977C40.9384 29.8977 41.4214 29.7557 41.804 29.4716C42.1866 29.1913 42.3778 28.7292 42.3778 28.0852V26.4318H42.2756C42.1695 26.6439 42.0142 26.8617 41.8097 27.0852C41.6089 27.3087 41.3419 27.4962 41.0085 27.6477C40.679 27.7992 40.2642 27.875 39.7642 27.875C39.0938 27.875 38.4858 27.7178 37.9403 27.4034C37.3987 27.0852 36.9669 26.6117 36.6449 25.983C36.3267 25.3504 36.1676 24.5587 36.1676 23.608C36.1676 22.6496 36.3267 21.8409 36.6449 21.1818C36.9669 20.5189 37.4006 20.017 37.946 19.6761C38.4915 19.3314 39.0994 19.1591 39.7699 19.1591C40.2813 19.1591 40.7017 19.2462 41.0312 19.4205C41.3646 19.5909 41.6297 19.7973 41.8267 20.0398C42.0237 20.2784 42.1733 20.5038 42.2756 20.7159H42.3892V19.2727H44.4176V28.142C44.4176 28.8883 44.2396 29.5057 43.8835 29.9943C43.5275 30.483 43.0407 30.8485 42.4233 31.0909C41.8059 31.3333 41.1051 31.4545 40.321 31.4545ZM40.3381 26.2614C40.7737 26.2614 41.1449 26.1553 41.4517 25.9432C41.7585 25.7311 41.9915 25.4261 42.1506 25.0284C42.3097 24.6307 42.3892 24.1534 42.3892 23.5966C42.3892 23.0473 42.3097 22.5663 42.1506 22.1534C41.9953 21.7405 41.7642 21.4205 41.4574 21.1932C41.1544 20.9621 40.7813 20.8466 40.3381 20.8466C39.8797 20.8466 39.4972 20.9659 39.1903 21.2045C38.8835 21.4432 38.6525 21.7708 38.4972 22.1875C38.3419 22.6004 38.2642 23.0701 38.2642 23.5966C38.2642 24.1307 38.3419 24.5985 38.4972 25C38.6563 25.3977 38.8892 25.7083 39.196 25.9318C39.5066 26.1515 39.8873 26.2614 40.3381 26.2614ZM48.5824 16.3636V28H46.5256V16.3636H48.5824ZM50.6974 28V19.2727H52.7543V28H50.6974ZM51.7315 18.0341C51.4058 18.0341 51.1255 17.9261 50.8906 17.7102C50.6558 17.4905 50.5384 17.2273 50.5384 16.9205C50.5384 16.6098 50.6558 16.3466 50.8906 16.1307C51.1255 15.911 51.4058 15.8011 51.7315 15.8011C52.0611 15.8011 52.3414 15.911 52.5724 16.1307C52.8073 16.3466 52.9247 16.6098 52.9247 16.9205C52.9247 17.2273 52.8073 17.4905 52.5724 17.7102C52.3414 17.9261 52.0611 18.0341 51.7315 18.0341ZM61.767 21.5795L59.892 21.7841C59.839 21.5947 59.7462 21.4167 59.6136 21.25C59.4848 21.0833 59.3106 20.9489 59.0909 20.8466C58.8712 20.7443 58.6023 20.6932 58.2841 20.6932C57.8561 20.6932 57.4962 20.786 57.2045 20.9716C56.9167 21.1572 56.7746 21.3977 56.7784 21.6932C56.7746 21.947 56.8674 22.1534 57.0568 22.3125C57.25 22.4716 57.5682 22.6023 58.0114 22.7045L59.5 23.0227C60.3258 23.2008 60.9394 23.483 61.3409 23.8693C61.7462 24.2557 61.9508 24.7614 61.9545 25.3864C61.9508 25.9356 61.7898 26.4205 61.4716 26.8409C61.1572 27.2576 60.7197 27.5833 60.1591 27.8182C59.5985 28.053 58.9545 28.1705 58.2273 28.1705C57.1591 28.1705 56.2992 27.947 55.6477 27.5C54.9962 27.0492 54.608 26.4223 54.483 25.6193L56.4886 25.4261C56.5795 25.8201 56.7727 26.1174 57.0682 26.3182C57.3636 26.5189 57.7481 26.6193 58.2216 26.6193C58.7102 26.6193 59.1023 26.5189 59.3977 26.3182C59.697 26.1174 59.8466 25.8693 59.8466 25.5739C59.8466 25.3239 59.75 25.1174 59.5568 24.9545C59.3674 24.7917 59.072 24.6667 58.6705 24.5795L57.1818 24.267C56.3447 24.0928 55.7254 23.7992 55.3239 23.3864C54.9223 22.9697 54.7235 22.4432 54.7273 21.8068C54.7235 21.2689 54.8693 20.803 55.1648 20.4091C55.464 20.0114 55.8788 19.7045 56.4091 19.4886C56.9432 19.2689 57.5587 19.1591 58.2557 19.1591C59.2784 19.1591 60.0833 19.3769 60.6705 19.8125C61.2614 20.2481 61.6269 20.8371 61.767 21.5795ZM65.7074 22.8864V28H63.6506V16.3636H65.6619V20.7557H65.7642C65.9688 20.2633 66.285 19.875 66.7131 19.5909C67.1449 19.303 67.6941 19.1591 68.3608 19.1591C68.9669 19.1591 69.4953 19.286 69.946 19.5398C70.3968 19.7936 70.7453 20.1648 70.9915 20.6534C71.2415 21.142 71.3665 21.7386 71.3665 22.4432V28H69.3097V22.7614C69.3097 22.1742 69.1581 21.7178 68.8551 21.392C68.5559 21.0625 68.1354 20.8977 67.5938 20.8977C67.2301 20.8977 66.9044 20.9773 66.6165 21.1364C66.3324 21.2917 66.1089 21.517 65.946 21.8125C65.7869 22.108 65.7074 22.4659 65.7074 22.8864Z" fill="#0F67F5"/>
<line x1="8.74228e-08" y1="43" x2="89" y2="43" stroke="#0F67F5" stroke-width="2"/>
<path d="M106.409 16.3636H108.091L112.045 26.0227H112.182L116.136 16.3636H117.818V28H116.5V19.1591H116.386L112.75 28H111.477L107.841 19.1591H107.727V28H106.409V16.3636ZM123.03 28.2045C122.477 28.2045 121.975 28.1004 121.524 27.892C121.073 27.6799 120.715 27.375 120.45 26.9773C120.185 26.5758 120.053 26.0909 120.053 25.5227C120.053 25.0227 120.151 24.6174 120.348 24.3068C120.545 23.9924 120.808 23.7462 121.138 23.5682C121.467 23.3902 121.831 23.2576 122.229 23.1705C122.63 23.0795 123.034 23.0076 123.439 22.9545C123.969 22.8864 124.399 22.8352 124.729 22.8011C125.062 22.7633 125.304 22.7008 125.456 22.6136C125.611 22.5265 125.689 22.375 125.689 22.1591V22.1136C125.689 21.553 125.536 21.1174 125.229 20.8068C124.926 20.4962 124.465 20.3409 123.848 20.3409C123.208 20.3409 122.706 20.4811 122.342 20.7614C121.979 21.0417 121.723 21.3409 121.575 21.6591L120.303 21.2045C120.53 20.6742 120.833 20.2614 121.212 19.9659C121.594 19.6667 122.011 19.4583 122.462 19.3409C122.916 19.2197 123.363 19.1591 123.803 19.1591C124.083 19.1591 124.405 19.1932 124.768 19.2614C125.136 19.3258 125.49 19.4602 125.831 19.6648C126.176 19.8693 126.462 20.178 126.689 20.5909C126.916 21.0038 127.03 21.5568 127.03 22.25V28H125.689V26.8182H125.621C125.53 27.0076 125.378 27.2102 125.166 27.4261C124.954 27.642 124.672 27.8258 124.32 27.9773C123.967 28.1288 123.537 28.2045 123.03 28.2045ZM123.234 27C123.765 27 124.212 26.8958 124.575 26.6875C124.943 26.4792 125.219 26.2102 125.405 25.8807C125.594 25.5511 125.689 25.2045 125.689 24.8409V23.6136C125.632 23.6818 125.507 23.7443 125.314 23.8011C125.125 23.8542 124.905 23.9015 124.655 23.9432C124.409 23.9811 124.168 24.0152 123.933 24.0455C123.702 24.072 123.515 24.0947 123.371 24.1136C123.022 24.1591 122.696 24.233 122.393 24.3352C122.094 24.4337 121.852 24.5833 121.666 24.7841C121.484 24.9811 121.393 25.25 121.393 25.5909C121.393 26.0568 121.566 26.4091 121.911 26.6477C122.259 26.8826 122.7 27 123.234 27ZM133.273 19.2727V20.4091H128.75V19.2727H133.273ZM130.068 17.1818H131.409V25.5C131.409 25.8788 131.464 26.1629 131.574 26.3523C131.688 26.5379 131.831 26.6629 132.006 26.7273C132.184 26.7879 132.371 26.8182 132.568 26.8182C132.716 26.8182 132.837 26.8106 132.932 26.7955C133.027 26.7765 133.102 26.7614 133.159 26.75L133.432 27.9545C133.341 27.9886 133.214 28.0227 133.051 28.0568C132.888 28.0947 132.682 28.1136 132.432 28.1136C132.053 28.1136 131.682 28.0322 131.318 27.8693C130.958 27.7064 130.659 27.4583 130.42 27.125C130.186 26.7917 130.068 26.3712 130.068 25.8636V17.1818ZM136.818 22.75V28H135.477V16.3636H136.818V20.6364H136.932C137.136 20.1856 137.443 19.8277 137.852 19.5625C138.265 19.2936 138.814 19.1591 139.5 19.1591C140.095 19.1591 140.616 19.2784 141.062 19.517C141.509 19.7519 141.856 20.1136 142.102 20.6023C142.352 21.0871 142.477 21.7045 142.477 22.4545V28H141.136V22.5455C141.136 21.8523 140.956 21.3163 140.597 20.9375C140.241 20.5549 139.746 20.3636 139.114 20.3636C138.674 20.3636 138.28 20.4564 137.932 20.642C137.587 20.8277 137.314 21.0985 137.114 21.4545C136.917 21.8106 136.818 22.2424 136.818 22.75Z" fill="#333333"/>
<path d="M183.773 19.2727C183.705 18.697 183.428 18.25 182.943 17.9318C182.458 17.6136 181.864 17.4545 181.159 17.4545C180.644 17.4545 180.193 17.5379 179.807 17.7045C179.424 17.8712 179.125 18.1004 178.909 18.392C178.697 18.6837 178.591 19.0152 178.591 19.3864C178.591 19.697 178.665 19.964 178.812 20.1875C178.964 20.4072 179.157 20.5909 179.392 20.7386C179.627 20.8826 179.873 21.0019 180.131 21.0966C180.388 21.1875 180.625 21.2614 180.841 21.3182L182.023 21.6364C182.326 21.7159 182.663 21.8258 183.034 21.9659C183.409 22.1061 183.767 22.2973 184.108 22.5398C184.453 22.7784 184.737 23.0852 184.96 23.4602C185.184 23.8352 185.295 24.2955 185.295 24.8409C185.295 25.4697 185.131 26.0379 184.801 26.5455C184.475 27.053 183.998 27.4564 183.369 27.7557C182.744 28.0549 181.985 28.2045 181.091 28.2045C180.258 28.2045 179.536 28.0701 178.926 27.8011C178.32 27.5322 177.843 27.1572 177.494 26.6761C177.15 26.1951 176.955 25.6364 176.909 25H178.364C178.402 25.4394 178.549 25.803 178.807 26.0909C179.068 26.375 179.398 26.5871 179.795 26.7273C180.197 26.8636 180.629 26.9318 181.091 26.9318C181.629 26.9318 182.112 26.8447 182.54 26.6705C182.968 26.4924 183.307 26.2462 183.557 25.9318C183.807 25.6136 183.932 25.2424 183.932 24.8182C183.932 24.4318 183.824 24.1174 183.608 23.875C183.392 23.6326 183.108 23.4356 182.756 23.2841C182.403 23.1326 182.023 23 181.614 22.8864L180.182 22.4773C179.273 22.2159 178.553 21.8428 178.023 21.358C177.492 20.8731 177.227 20.2386 177.227 19.4545C177.227 18.803 177.403 18.2348 177.756 17.75C178.112 17.2614 178.589 16.8826 179.188 16.6136C179.79 16.3409 180.462 16.2045 181.205 16.2045C181.955 16.2045 182.621 16.339 183.205 16.608C183.788 16.8731 184.25 17.2367 184.591 17.6989C184.936 18.161 185.117 18.6856 185.136 19.2727H183.773ZM190.976 28.1818C190.158 28.1818 189.453 27.9886 188.862 27.6023C188.271 27.2159 187.817 26.6837 187.499 26.0057C187.18 25.3277 187.021 24.553 187.021 23.6818C187.021 22.7955 187.184 22.0133 187.51 21.3352C187.839 20.6534 188.298 20.1212 188.885 19.7386C189.476 19.3523 190.165 19.1591 190.953 19.1591C191.567 19.1591 192.12 19.2727 192.612 19.5C193.105 19.7273 193.508 20.0455 193.822 20.4545C194.137 20.8636 194.332 21.3409 194.408 21.8864H193.067C192.964 21.4886 192.737 21.1364 192.385 20.8295C192.036 20.5189 191.567 20.3636 190.976 20.3636C190.453 20.3636 189.995 20.5 189.601 20.7727C189.211 21.0417 188.906 21.4223 188.686 21.9148C188.47 22.4034 188.362 22.9773 188.362 23.6364C188.362 24.3106 188.468 24.8977 188.68 25.3977C188.896 25.8977 189.199 26.286 189.589 26.5625C189.983 26.839 190.446 26.9773 190.976 26.9773C191.324 26.9773 191.641 26.9167 191.925 26.7955C192.209 26.6742 192.449 26.5 192.646 26.2727C192.843 26.0455 192.983 25.7727 193.067 25.4545H194.408C194.332 25.9697 194.144 26.4337 193.845 26.8466C193.55 27.2557 193.158 27.5814 192.669 27.8239C192.184 28.0625 191.62 28.1818 190.976 28.1818ZM196.368 28V19.2727H197.709V28H196.368ZM197.05 17.8182C196.788 17.8182 196.563 17.7292 196.374 17.5511C196.188 17.3731 196.095 17.1591 196.095 16.9091C196.095 16.6591 196.188 16.4451 196.374 16.267C196.563 16.089 196.788 16 197.05 16C197.311 16 197.535 16.089 197.72 16.267C197.91 16.4451 198.004 16.6591 198.004 16.9091C198.004 17.1591 197.91 17.3731 197.72 17.5511C197.535 17.7292 197.311 17.8182 197.05 17.8182ZM203.824 28.1818C202.983 28.1818 202.258 27.9962 201.648 27.625C201.042 27.25 200.574 26.7273 200.244 26.0568C199.919 25.3826 199.756 24.5985 199.756 23.7045C199.756 22.8106 199.919 22.0227 200.244 21.3409C200.574 20.6553 201.032 20.1212 201.619 19.7386C202.21 19.3523 202.9 19.1591 203.688 19.1591C204.142 19.1591 204.591 19.2348 205.034 19.3864C205.477 19.5379 205.881 19.7841 206.244 20.125C206.608 20.4621 206.898 20.9091 207.114 21.4659C207.33 22.0227 207.438 22.7083 207.438 23.5227V24.0909H200.71V22.9318H206.074C206.074 22.4394 205.975 22 205.778 21.6136C205.585 21.2273 205.309 20.9223 204.949 20.6989C204.593 20.4754 204.172 20.3636 203.688 20.3636C203.153 20.3636 202.691 20.4962 202.301 20.7614C201.915 21.0227 201.617 21.3636 201.409 21.7841C201.201 22.2045 201.097 22.6553 201.097 23.1364V23.9091C201.097 24.5682 201.21 25.1269 201.438 25.5852C201.669 26.0398 201.989 26.3864 202.398 26.625C202.807 26.8598 203.282 26.9773 203.824 26.9773C204.176 26.9773 204.494 26.928 204.778 26.8295C205.066 26.7273 205.314 26.5758 205.523 26.375C205.731 26.1705 205.892 25.9167 206.006 25.6136L207.301 25.9773C207.165 26.4167 206.936 26.803 206.614 27.1364C206.292 27.4659 205.894 27.7235 205.42 27.9091C204.947 28.0909 204.415 28.1818 203.824 28.1818ZM210.818 22.75V28H209.477V19.2727H210.773V20.6364H210.886C211.091 20.1932 211.402 19.8371 211.818 19.5682C212.235 19.2955 212.773 19.1591 213.432 19.1591C214.023 19.1591 214.54 19.2803 214.983 19.5227C215.426 19.7614 215.771 20.125 216.017 20.6136C216.263 21.0985 216.386 21.7121 216.386 22.4545V28H215.045V22.5455C215.045 21.8598 214.867 21.3258 214.511 20.9432C214.155 20.5568 213.667 20.3636 213.045 20.3636C212.617 20.3636 212.235 20.4564 211.898 20.642C211.564 20.8277 211.301 21.0985 211.108 21.4545C210.915 21.8106 210.818 22.2424 210.818 22.75ZM222.382 28.1818C221.564 28.1818 220.859 27.9886 220.268 27.6023C219.678 27.2159 219.223 26.6837 218.905 26.0057C218.587 25.3277 218.428 24.553 218.428 23.6818C218.428 22.7955 218.59 22.0133 218.916 21.3352C219.246 20.6534 219.704 20.1212 220.291 19.7386C220.882 19.3523 221.571 19.1591 222.359 19.1591C222.973 19.1591 223.526 19.2727 224.018 19.5C224.511 19.7273 224.914 20.0455 225.229 20.4545C225.543 20.8636 225.738 21.3409 225.814 21.8864H224.473C224.371 21.4886 224.143 21.1364 223.791 20.8295C223.443 20.5189 222.973 20.3636 222.382 20.3636C221.859 20.3636 221.401 20.5 221.007 20.7727C220.617 21.0417 220.312 21.4223 220.092 21.9148C219.876 22.4034 219.768 22.9773 219.768 23.6364C219.768 24.3106 219.875 24.8977 220.087 25.3977C220.303 25.8977 220.606 26.286 220.996 26.5625C221.39 26.839 221.852 26.9773 222.382 26.9773C222.731 26.9773 223.047 26.9167 223.331 26.7955C223.615 26.6742 223.856 26.5 224.053 26.2727C224.25 26.0455 224.39 25.7727 224.473 25.4545H225.814C225.738 25.9697 225.551 26.4337 225.251 26.8466C224.956 27.2557 224.564 27.5814 224.075 27.8239C223.59 28.0625 223.026 28.1818 222.382 28.1818ZM231.433 28.1818C230.592 28.1818 229.867 27.9962 229.257 27.625C228.651 27.25 228.183 26.7273 227.854 26.0568C227.528 25.3826 227.365 24.5985 227.365 23.7045C227.365 22.8106 227.528 22.0227 227.854 21.3409C228.183 20.6553 228.642 20.1212 229.229 19.7386C229.82 19.3523 230.509 19.1591 231.297 19.1591C231.751 19.1591 232.2 19.2348 232.643 19.3864C233.087 19.5379 233.49 19.7841 233.854 20.125C234.217 20.4621 234.507 20.9091 234.723 21.4659C234.939 22.0227 235.047 22.7083 235.047 23.5227V24.0909H228.32V22.9318H233.683C233.683 22.4394 233.585 22 233.388 21.6136C233.195 21.2273 232.918 20.9223 232.558 20.6989C232.202 20.4754 231.782 20.3636 231.297 20.3636C230.763 20.3636 230.301 20.4962 229.911 20.7614C229.524 21.0227 229.227 21.3636 229.018 21.7841C228.81 22.2045 228.706 22.6553 228.706 23.1364V23.9091C228.706 24.5682 228.82 25.1269 229.047 25.5852C229.278 26.0398 229.598 26.3864 230.007 26.625C230.416 26.8598 230.892 26.9773 231.433 26.9773C231.786 26.9773 232.104 26.928 232.388 26.8295C232.676 26.7273 232.924 26.5758 233.132 26.375C233.34 26.1705 233.501 25.9167 233.615 25.6136L234.911 25.9773C234.774 26.4167 234.545 26.803 234.223 27.1364C233.901 27.4659 233.503 27.7235 233.03 27.9091C232.556 28.0909 232.024 28.1818 231.433 28.1818Z" fill="#333333"/>
<rect width="252" height="76" transform="translate(0 52)" fill="white"/>
<rect x="12" y="64" width="99" height="12" fill="#EBEBEB"/>
<rect x="12" y="84" width="228" height="12" fill="#EBEBEB"/>
<rect x="12" y="104" width="228" height="12" fill="#EBEBEB"/>
</svg>

<svg width="252" height="128" fill="none" xmlns="http://www.w3.org/2000/svg"><path fill="#fff" d="M0 0h252v44H0z"/><path stroke="#EBEBEB" d="M0 43.5h252"/><path d="M17.15 28V16.36h7.57v1.77h-5.46v3.16h5.06v1.77h-5.06v3.17h5.5V28h-7.61Zm11.68-5.11V28h-2.05v-8.73h1.96v1.49h.1c.2-.5.52-.88.96-1.17.45-.29 1-.43 1.65-.43.6 0 1.12.13 1.57.39.45.25.8.63 1.05 1.11.25.5.37 1.09.36 1.78V28h-2.05v-5.24c0-.58-.15-1.04-.46-1.37a1.6 1.6 0 0 0-1.24-.5c-.36 0-.68.09-.96.25-.28.15-.5.38-.65.67-.16.3-.24.66-.24 1.08Zm11.5 8.56a5.4 5.4 0 0 1-1.91-.3c-.53-.2-.96-.46-1.28-.8a2.7 2.7 0 0 1-.67-1.1l1.85-.45c.08.17.2.34.36.5.16.18.38.32.65.43.27.11.61.17 1.03.17a2.3 2.3 0 0 0 1.44-.43c.39-.28.58-.74.58-1.38v-1.66h-.1a2.59 2.59 0 0 1-2.52 1.45 3.38 3.38 0 0 1-3.12-1.9 5.26 5.26 0 0 1-.47-2.37c0-.96.16-1.77.47-2.43a3.34 3.34 0 0 1 4.39-1.76c.33.17.6.38.8.62.2.24.34.46.45.68h.1v-1.45h2.04v8.87a3 3 0 0 1-.54 1.85 3.2 3.2 0 0 1-1.46 1.1 5.7 5.7 0 0 1-2.1.36Zm0-5.19c.44 0 .81-.1 1.12-.32.3-.2.54-.51.7-.91.16-.4.24-.88.24-1.43a4 4 0 0 0-.24-1.45 2.06 2.06 0 0 0-.7-.96 1.8 1.8 0 0 0-1.11-.34c-.46 0-.84.12-1.15.35-.3.24-.54.57-.7.99-.15.41-.23.88-.23 1.4 0 .54.08 1 .24 1.41.16.4.39.7.7.93.3.22.69.33 1.14.33Zm8.25-9.9V28h-2.05V16.36h2.05ZM50.7 28v-8.73h2.05V28H50.7Zm1.03-9.97c-.32 0-.6-.1-.84-.32a1.04 1.04 0 0 1-.35-.79c0-.31.12-.57.35-.79.24-.22.52-.33.84-.33.33 0 .61.11.84.33.24.22.35.48.35.8 0 .3-.11.56-.35.78-.23.22-.5.32-.84.32Zm10.04 3.55-1.88.2a1.5 1.5 0 0 0-.8-.93 1.9 1.9 0 0 0-.8-.16c-.43 0-.8.1-1.09.28-.28.19-.43.43-.42.72 0 .26.09.46.28.62.19.16.5.3.95.4l1.49.31c.83.18 1.44.46 1.84.85.4.39.61.9.61 1.52 0 .55-.16 1.03-.48 1.45a3.1 3.1 0 0 1-1.31.98c-.56.23-1.2.35-1.93.35a4.48 4.48 0 0 1-2.58-.67 2.7 2.7 0 0 1-1.17-1.88l2-.2c.1.4.3.7.59.9.3.2.68.3 1.15.3.49 0 .88-.1 1.18-.3.3-.2.45-.45.45-.75 0-.25-.1-.45-.3-.62a2.02 2.02 0 0 0-.88-.37l-1.49-.31a3.54 3.54 0 0 1-1.86-.88 2.2 2.2 0 0 1-.6-1.58c0-.54.15-1 .44-1.4.3-.4.72-.7 1.25-.92a4.82 4.82 0 0 1 1.85-.33 4 4 0 0 1 2.41.65c.6.44.96 1.03 1.1 1.77Zm3.94 1.3V28h-2.06V16.36h2.01v4.4h.1c.2-.5.52-.89.95-1.17a2.9 2.9 0 0 1 1.65-.43c.6 0 1.14.13 1.59.38.45.25.8.62 1.04 1.11.25.5.38 1.09.38 1.8V28H69.3v-5.24c0-.59-.15-1.04-.45-1.37-.3-.33-.72-.5-1.27-.5-.36 0-.69.09-.97.25a1.6 1.6 0 0 0-.67.67c-.16.3-.24.66-.24 1.08Z" fill="#0F67F5"/><path stroke="#0F67F5" stroke-width="2" d="M0 43h89"/><path d="M106.4 16.36h1.7l3.95 9.66h.13l3.96-9.66h1.68V28h-1.32v-8.84h-.11L112.75 28h-1.27l-3.64-8.84h-.11V28h-1.32V16.36Zm16.63 11.84c-.55 0-1.06-.1-1.5-.3-.46-.22-.81-.52-1.08-.92s-.4-.89-.4-1.46c0-.5.1-.9.3-1.21.2-.32.46-.56.79-.74.33-.18.7-.31 1.09-.4.4-.1.8-.16 1.2-.22l1.3-.15c.33-.04.57-.1.73-.19.15-.08.23-.23.23-.45v-.05c0-.56-.15-1-.46-1.3-.3-.31-.77-.47-1.38-.47-.64 0-1.14.14-1.5.42a2.5 2.5 0 0 0-.77.9l-1.28-.46a3 3 0 0 1 .91-1.23c.38-.3.8-.51 1.25-.63a5.18 5.18 0 0 1 2.3-.08c.38.07.73.2 1.07.4.35.2.63.52.86.93.23.41.34.97.34 1.66V28h-1.34v-1.18h-.07a2.62 2.62 0 0 1-1.3 1.16c-.35.15-.78.22-1.29.22Zm.2-1.2c.53 0 .98-.1 1.34-.31a2.13 2.13 0 0 0 1.12-1.85v-1.23c-.06.07-.18.13-.38.2-.19.04-.4.1-.66.13a29.63 29.63 0 0 1-1.28.17c-.35.05-.67.12-.98.23-.3.1-.54.24-.72.44-.19.2-.28.47-.28.81 0 .47.18.82.52 1.06.35.23.79.35 1.32.35Zm10.04-7.73v1.14h-4.52v-1.14h4.52Zm-3.2-2.09h1.34v8.32c0 .38.05.66.16.85.12.19.26.31.44.38.17.06.36.09.56.09.15 0 .27 0 .36-.02l.23-.05.27 1.2a2.73 2.73 0 0 1-1 .16 2.7 2.7 0 0 1-1.11-.24 2.21 2.21 0 0 1-.9-.75 2.14 2.14 0 0 1-.35-1.26v-8.68Zm6.75 5.57V28h-1.34V16.36h1.34v4.28h.11c.2-.45.51-.81.92-1.08.41-.27.96-.4 1.65-.4.6 0 1.12.12 1.56.36.45.23.8.6 1.04 1.08.25.49.38 1.1.38 1.85V28h-1.34v-5.45c0-.7-.18-1.23-.54-1.61a1.93 1.93 0 0 0-1.49-.58c-.44 0-.83.1-1.18.28-.34.19-.62.46-.82.81-.2.36-.3.8-.3 1.3Zm46.95-3.48a1.78 1.78 0 0 0-.83-1.34 3.18 3.18 0 0 0-1.78-.48c-.52 0-.97.09-1.35.25-.39.17-.69.4-.9.7a1.65 1.65 0 0 0-.1 1.79c.15.22.35.4.58.55.24.14.48.26.74.36l.71.22 1.18.32c.3.08.64.19 1.01.33.38.14.74.33 1.08.57a2.65 2.65 0 0 1 1.19 2.3c0 .63-.17 1.2-.5 1.7-.33.51-.8.92-1.43 1.22-.63.3-1.38.44-2.28.44a5.3 5.3 0 0 1-2.16-.4 3.22 3.22 0 0 1-2.02-2.8h1.45c.04.44.19.8.45 1.1.26.27.59.49.98.63a4.21 4.21 0 0 0 2.75-.06c.43-.18.77-.42 1.02-.74s.37-.69.37-1.11c0-.39-.1-.7-.32-.95-.22-.24-.5-.43-.85-.59a9 9 0 0 0-1.15-.4l-1.43-.4a5.33 5.33 0 0 1-2.16-1.12 2.46 2.46 0 0 1-.8-1.9c0-.66.18-1.23.54-1.71a3.5 3.5 0 0 1 1.43-1.14c.6-.27 1.27-.4 2.02-.4s1.41.13 2 .4c.58.26 1.04.63 1.38 1.09.35.46.53.99.55 1.57h-1.37Zm7.2 8.91c-.81 0-1.52-.2-2.1-.58a3.77 3.77 0 0 1-1.37-1.6 5.4 5.4 0 0 1-.48-2.32c0-.88.16-1.67.49-2.34a3.7 3.7 0 0 1 3.44-2.18c.62 0 1.17.11 1.66.34a2.97 2.97 0 0 1 1.8 2.39h-1.34c-.1-.4-.33-.75-.69-1.06a2.04 2.04 0 0 0-1.4-.47 2.39 2.39 0 0 0-2.29 1.55 4.23 4.23 0 0 0-.33 1.73c0 .67.1 1.26.32 1.76s.52.89.9 1.16c.4.28.87.42 1.4.42.34 0 .66-.06.95-.18a1.96 1.96 0 0 0 1.14-1.35h1.34a3.11 3.11 0 0 1-1.74 2.37 3.8 3.8 0 0 1-1.7.36Zm5.4-.18v-8.73h1.34V28h-1.34Zm.68-10.18a.95.95 0 0 1-.68-.27.86.86 0 0 1-.28-.64c0-.25.1-.46.28-.64a.95.95 0 0 1 .68-.27c.26 0 .48.09.67.27.19.18.28.39.28.64s-.09.46-.28.64a.93.93 0 0 1-.67.27Zm6.77 10.36a3.74 3.74 0 0 1-3.58-2.13 5.36 5.36 0 0 1-.48-2.35c0-.89.16-1.68.48-2.36a3.7 3.7 0 0 1 3.44-2.18c.46 0 .91.07 1.35.23a3.33 3.33 0 0 1 2.08 2.08c.22.55.33 1.24.33 2.05v.57h-6.73v-1.16h5.36c0-.5-.1-.93-.3-1.32a2.22 2.22 0 0 0-2.08-1.25c-.54 0-1 .14-1.39.4-.39.26-.68.6-.9 1.02a3 3 0 0 0-.3 1.36v.77c0 .66.11 1.22.34 1.68a2.48 2.48 0 0 0 2.38 1.39c.36 0 .67-.05.96-.15a2 2 0 0 0 1.23-1.22l1.3.37a3.01 3.01 0 0 1-1.89 1.93c-.47.18-1 .27-1.6.27Zm7-5.43V28h-1.34v-8.73h1.3v1.37h.1c.21-.45.52-.8.94-1.07.42-.27.95-.41 1.61-.41.6 0 1.11.12 1.55.36.45.24.8.6 1.04 1.1.24.48.37 1.1.37 1.83V28h-1.34v-5.45c0-.69-.18-1.22-.54-1.6a1.9 1.9 0 0 0-1.47-.59c-.42 0-.8.1-1.14.28-.34.19-.6.46-.8.81-.19.36-.28.8-.28 1.3Zm11.56 5.43a3.8 3.8 0 0 1-2.11-.58 3.78 3.78 0 0 1-1.37-1.6 5.41 5.41 0 0 1-.47-2.32c0-.88.16-1.67.49-2.34a3.7 3.7 0 0 1 3.44-2.18c.61 0 1.17.11 1.66.34a2.98 2.98 0 0 1 1.8 2.39h-1.35a2.04 2.04 0 0 0-2.1-1.52c-.51 0-.97.13-1.36.4-.4.27-.7.65-.92 1.14a4.23 4.23 0 0 0-.32 1.73c0 .67.1 1.26.32 1.76.21.5.52.89.9 1.16.4.28.86.42 1.4.42.34 0 .66-.06.94-.18a1.96 1.96 0 0 0 1.14-1.35h1.34a3.1 3.1 0 0 1-1.74 2.37c-.48.24-1.04.36-1.69.36Zm9.05 0a3.73 3.73 0 0 1-3.58-2.13 5.34 5.34 0 0 1-.48-2.35c0-.89.16-1.68.48-2.36a3.7 3.7 0 0 1 3.44-2.18c.46 0 .91.07 1.35.23a3.34 3.34 0 0 1 2.08 2.08c.22.55.33 1.24.33 2.05v.57h-6.73v-1.16h5.36c0-.5-.1-.93-.3-1.32a2.22 2.22 0 0 0-2.08-1.25c-.54 0-1 .14-1.39.4-.39.26-.68.6-.9 1.02a3 3 0 0 0-.3 1.36v.77c0 .66.11 1.22.34 1.68a2.48 2.48 0 0 0 2.38 1.39c.36 0 .67-.05.96-.15a2 2 0 0 0 1.23-1.22l1.3.37c-.15.44-.38.82-.7 1.16a3.4 3.4 0 0 1-1.19.77c-.47.18-1 .27-1.6.27Z" fill="#333"/><path fill="#fff" d="M0 52h252v76H0z"/><path fill="#EBEBEB" d="M12 64h99v12H12zm0 20h228v12H12zm0 20h228v12H12z"/></svg>
